!!!COM: Beethoven, Ludwig van
!!!CDT: 1770///-1827///
!!!ODT: 1798///-1800///
!!!OTL: String Quartet No. 4 in C Minor, Op. 18, No. 4
!!!OPS: Op. 18
!!!ONM: No. 4
!!!OMV: Mvmt. 2
!!!OMD: Scherzo: Andante scherzoso quasi Allegretto
!!!PDT: 1801///
!!!PPP: Vienna
!!!PPR: C. Haslinger qm Tobias
!!!ODE: Dem F&uuml;rsten von Lobkowitz gewidmet
!!!MPD: 1798///-1800///
**kern	**dynam	**kern	**dynam	**kern	**dynam	**kern	**dynam
*staff4	*staff4	*staff3	*staff3	*staff2	*staff2	*staff1	*staff1
*Icello	*Icello	*Iviola	*Iviola	*Ivioln	*Ivioln	*Ivioln	*Ivioln
*>[A,A,B]	*>[A,A,B]	*>[A,A,B]	*>[A,A,B]	*>[A,A,B]	*>[A,A,B]	*>[A,A,B]	*>[A,A,B]
*>norep[A,B]	*>norep[A,B]	*>norep[A,B]	*>norep[A,B]	*>norep[A,B]	*>norep[A,B]	*>norep[A,B]	*>norep[A,B]
*>A	*>A	*>A	*>A	*>A	*>A	*>A	*>A
*clefF4	*clefF4	*clefC3	*clefC3	*clefG2	*clefG2	*clefG2	*clefG2
*k[]	*k[]	*k[]	*k[]	*k[]	*k[]	*k[]	*k[]
*C:	*C:	*C:	*C:	*C:	*C:	*C:	*C:
*M3/8	*M3/8	*M3/8	*M3/8	*M3/8	*M3/8	*M3/8	*M3/8
*MM100	*MM100	*MM100	*MM100	*MM100	*MM100	*MM100	*MM100
=1-!|:	=1-!|:	=1-!|:	=1-!|:	=1-!|:	=1-!|:	=1-!|:	=1-!|:
4.r	.	4.r	.	8g/L	pp	4.r	.
.	.	.	.	8g/	.	.	.
.	.	.	.	8g/J	.	.	.
=2	=2	=2	=2	=2	=2	=2	=2
4.r	.	4.r	.	8cc\L	.	4.r	.
.	.	.	.	8cc\J	.	.	.
.	.	.	.	16cc\LL	.	.	.
.	.	.	.	16b\JJ	.	.	.
=3	=3	=3	=3	=3	=3	=3	=3
4.r	.	4.r	.	16a/LL	.	4.r	.
.	.	.	.	16g/	.	.	.
.	.	.	.	16f/	.	.	.
.	.	.	.	16e/	.	.	.
.	.	.	.	16d/	.	.	.
.	.	.	.	16c/JJ	.	.	.
=4	=4	=4	=4	=4	=4	=4	=4
4.r	.	4.r	.	8B/L	.	4.r	.
.	.	.	.	8d/	.	.	.
.	.	.	.	8g/J	.	.	.
=5	=5	=5	=5	=5	=5	=5	=5
4.r	.	4.r	.	8e/L	.	4.r	.
.	.	.	.	8c/	.	.	.
.	.	.	.	[8a/J	.	.	.
=6	=6	=6	=6	=6	=6	=6	=6
4.r	.	8d\L	pp	8a/L]	.	4.r	.
.	.	8d\	.	8f#/	.	.	.
.	.	8d\J	.	[8cc/J	.	.	.
=7	=7	=7	=7	=7	=7	=7	=7
4.r	.	8g\L	.	16cc/LL]	.	4.r	.
.	.	.	.	16b/	.	.	.
.	.	8g\J	.	16a/	.	.	.
.	.	.	.	16g/	.	.	.
.	.	16g\LL	.	16a/	.	.	.
.	.	16f\JJ	.	16b/JJ	.	.	.
=8	=8	=8	=8	=8	=8	=8	=8
4.r	.	16e/LL	.	16cc\LL	.	4.r	.
.	.	16d/	.	16dd\	.	.	.
.	.	16c/	.	16ee\	.	.	.
.	.	16B/	.	16cc\	.	.	.
.	.	16A/	.	16ee\	.	.	.
.	.	16G/JJ	.	16cc\JJ	.	.	.
=9	=9	=9	=9	=9	=9	=9	=9
4.r	.	8F#/L	.	16a\LL	.	4.r	.
.	.	.	.	16ee\	.	.	.
.	.	8A/	.	16dd\	.	.	.
.	.	.	.	16cc\	.	.	.
.	.	[8d/J	.	16b\	.	.	.
.	.	.	.	16a\JJ	.	.	.
=10	=10	=10	=10	=10	=10	=10	=10
4.r	.	8d\L]	.	16b\LL	.	8gg\L	pp
.	.	.	.	16cc\	.	.	.
.	.	8B\	.	16dd\	.	8gg\	.
.	.	.	.	16b\	.	.	.
.	.	[8f\J	.	16dd\	.	8gg\J	.
.	.	.	.	16b\JJ	.	.	.
=11	=11	=11	=11	=11	=11	=11	=11
4.r	.	16f\LL]	.	16g/LL	.	8ccc\L	.
.	.	16e\	.	16g/	.	.	.
.	.	16d\	.	16f#/	.	8ccc\J	.
.	.	16c\	.	16e/	.	.	.
.	.	16d\	.	16f#/	.	16ccc\LL	.
.	.	16e\JJ	.	16g/JJ	.	16bb\JJ	.
=12	=12	=12	=12	=12	=12	=12	=12
4.r	.	16f\LL	.	16a/LL	.	16aa\LL	.
.	.	16g\	.	16b/J	.	16gg\	.
.	.	16a\	.	8cc/	.	16ff\	.
.	.	16A\	.	.	.	16ee\	.
.	.	16A\	.	[8f/J	.	16dd\	.
.	.	16A\JJ	.	.	.	16cc\JJ	.
=13	=13	=13	=13	=13	=13	=13	=13
8GG/L	p	16d/LL	<	16f/LL]	<	8b\L	<
.	.	16c/	.	16e/	.	.	.
8GG/	<	16B/	.	16d/	.	8dd\	<
.	.	16A/	.	16c/	.	.	.
8GG/J	.	16G/	.	16B/	.	8gg\J	.
.	.	16F/JJ	.	16d/JJ	.	.	.
=14	=14	=14	=14	=14	=14	=14	=14
8C/L	.	8E/	.	8G/L	.	8ee\L	.
8C/J	.	[4e\	.	8r	.	8cc\J	.
16C/LL	.	.	.	[8g/J	.	8r	.
16BB-/JJ	.	.	.	.	.	.	.
=15	=15	=15	=15	=15	=15	=15	=15
8AA/L	.	16e/LL]	.	16g/LL]	.	8cc#\L	.
.	.	16d/	.	16f/	.	.	.
8AA/	.	16c#/	.	16e/	.	8ee\	.
.	.	16B/	.	16d/	.	.	.
8AA/J	.	16A/	.	16c#/	.	8aa\J	.
.	.	16G/JJ	.	16e/JJ	.	.	.
=16	=16	=16	=16	=16	=16	=16	=16
8D\L	.	8F/	.	8A/L	.	8ff\L	.
8D\	.	4f\	.	8r	.	8dd\J	.
8D\J	.	.	.	[8b-/J	.	8r	.
=17	=17	=17	=17	=17	=17	=17	=17
8C/L	.	16g\LL	.	16b-/LL]	.	8ee\L	.
.	.	16f\	.	16a/	.	.	.
8C/	.	16e\	.	16g/	.	8gg\	.
.	.	16d\	.	16f/	.	.	.
8C/J	.	16c\	.	16e/	.	8ccc\J	.
.	.	16B-\JJ	.	16g/JJ	.	.	.
=18	=18	=18	=18	=18	=18	=18	=18
8F/L	.	8A\L	.	8c/L	.	4ccc\	.
8FF/	.	8a\	.	8cc/	.	.	.
[8F/J	.	16g\L	.	16b/L	.	16bb\LL	.
.	.	16f\JJ	.	16a/JJ	.	16aa\JJ	.
=19	=19	=19	=19	=19	=19	=19	=19
8F\L]	.	16f\LL	.	16a/LL	.	16aa\LL	.
.	.	16e\	.	16g/	.	16gg\	.
8F\	.	16e\	.	16g/	.	16gg\	.
.	.	16d\	.	16f/	.	16ff\	.
8F#\J	.	16d\	.	16f/	.	16ff\	.
.	.	16c\JJ	.	16e/JJ	.	16ee\JJ	.
=20	=20	=20	=20	=20	=20	=20	=20
8G\	p	8B/	p	16d/LL	p	8dd\L	p
.	.	.	.	16G/	.	.	.
8r	.	8B\L	.	16g/	.	8.gg\	.
.	.	.	.	16G/	.	.	.
8r	.	8d\J	.	16g/	.	.	.
.	.	.	.	16G/JJ	.	16ff\Jk	.
=21	=21	=21	=21	=21	=21	=21	=21
4.r	.	8G/	.	16g/LL	.	8ee\L	.
.	.	.	.	16G/	.	.	.
.	.	8c\L	.	16g/	.	8.gg\	.
.	.	.	.	16G/	.	.	.
.	.	8e\J	.	16g/	.	.	.
.	.	.	.	16G/JJ	.	16cc\Jk	.
=22	=22	=22	=22	=22	=22	=22	=22
8GG/	.	8G/	.	16g/LL	.	8b\L	.
.	.	.	.	16G/	.	.	.
8F\L	.	8d\L	.	16g/	.	8b\	.
.	.	.	.	16G/	.	.	.
8D\J	.	8f\J	.	16g/	.	8b\J	.
.	.	.	.	16G/JJ	.	.	.
=23	=23	=23	=23	=23	=23	=23	=23
8GG/	.	8G/	.	16g/LL	.	8cc\L	.
.	.	.	.	16G/	.	.	.
8E\L	.	8c\L	.	16g/	.	8cc\	.
.	.	.	.	16G/	.	.	.
8C\J	.	8e\J	.	16g/	.	8cc\J	.
.	.	.	.	16G/JJ	.	.	.
=24	=24	=24	=24	=24	=24	=24	=24
8GG/	.	8G/	.	16g/LL	.	8dd\L	.
.	.	.	.	16G/	.	.	.
8r	.	8d\L	.	16g/	.	8.gg\	.
.	.	.	.	16G/	.	.	.
8r	.	8f\J	.	16g/	.	.	.
.	.	.	.	16G/JJ	.	16ff\Jk	.
=25	=25	=25	=25	=25	=25	=25	=25
4.r	.	8G/	.	16g/LL	.	8ee\L	.
.	.	.	.	16G/	.	.	.
.	.	8c\L	.	16g/	.	8.gg\	.
.	.	.	.	16G/	.	.	.
.	.	8e\J	.	16g/	.	.	.
.	.	.	.	16G/JJ	.	16cc\Jk	.
=26	=26	=26	=26	=26	=26	=26	=26
8GG/	.	8G/	.	16g/LL	.	8b\L	.
.	.	.	.	16G/	.	.	.
8F\L	.	8d\L	.	16g/	.	8b\	.
.	.	.	.	16G/	.	.	.
8D\J	.	8f\J	.	16g/	.	8b\J	.
.	.	.	.	16G/JJ	.	.	.
=27	=27	=27	=27	=27	=27	=27	=27
8GG/	.	8G/	.	16g/LL	.	8cc\L	.
.	.	.	.	16G/	.	.	.
8E\L	.	8c\L	.	16g/	.	8cc\	.
.	.	.	.	16G/	.	.	.
8C\J	.	8e\J	.	16g/	.	8cc\J	.
.	.	.	.	16G/JJ	.	.	.
=28	=28	=28	=28	=28	=28	=28	=28
16GG/LL	.	8G/L	.	8B/L	.	8dd\L	.
16G/	.	.	.	.	.	.	.
16G/	.	16r	.	16r	.	16r	.
16G/	.	16d/L	.	16B/L	.	16g\L	.
16E/	.	16G/	.	16g/	.	16cc\	.
16C/JJ	.	16c/JJ	.	16g/JJ	.	16ee\JJ	.
=29	=29	=29	=29	=29	=29	=29	=29
16GG/LL	.	8B/L	.	8g/L	.	8dd\L	.
16G/	.	.	.	.	.	.	.
16G/	.	16r	.	16r	.	16r	.
16G/	.	16d/L	.	16B/L	.	16g\L	.
16E/	.	16G/	.	16g/	.	16cc\	.
16C/JJ	.	16c/JJ	.	16g/JJ	.	16ee\JJ	.
=30	=30	=30	=30	=30	=30	=30	=30
16GG/LL	<	16B/LL	<	16g/LL	<	16dd\LL	<
16G/	<	16d/	<	16B/	<	16g\	<
16E/	.	16G/	.	16g/	.	16cc\	.
16C/	.	16c/	.	16g/	.	16ee\	.
16GG/	.	16B/	.	16g/	.	16dd\	.
16G/JJ	.	16d/JJ	.	16B/JJ	.	16g\JJ	.
=31	=31	=31	=31	=31	=31	=31	=31
16E/LL	.	16G/LL	.	16g/LL	.	16cc\LL	.
16C/	.	16c/	.	16g/	.	16ee\	.
16GG/	.	16B/	.	16g/	.	16dd\	.
16G/	.	16d/	.	16B/	.	16g\	.
16E/	.	16G/	.	16g/	.	16cc\	.
16C/JJ	.	16c/JJ	.	16g/JJ	.	16ee\JJ	.
=32	=32	=32	=32	=32	=32	=32	=32
8GG/L	f	8B\L	f	8g/L	f	8dd\L	f
8G/J	.	8G\J 8g\	.	8d/J 8b/	.	8d\J 8b\ 8gg\	.
8r	.	8r	.	8r	.	8r	.
=33	=33	=33	=33	=33	=33	=33	=33
8EE/L	f	4.r	.	4.r	.	4.r	.
8EE/	.	.	.	.	.	.	.
8EE/J	.	.	.	.	.	.	.
=34	=34	=34	=34	=34	=34	=34	=34
8C/L	.	8E/L	f	4.r	.	4.r	.
8C/J	.	8E/	.	.	.	.	.
16C/LL	.	8E/J	.	.	.	.	.
16BB/JJ	.	.	.	.	.	.	.
=35	=35	=35	=35	=35	=35	=35	=35
8AA\L	.	8c\L	.	8e/L	f	4.r	.
8A\J	.	8c\J	.	8e/	.	.	.
16A\LL	.	16c/LL	.	8e/J	.	.	.
16G\JJ	.	16B/JJ	.	.	.	.	.
=36	=36	=36	=36	=36	=36	=36	=36
8F#\L	.	8A/L	.	8a/L	.	8cc\L	f
8F#\J	.	8.A/	.	8a/J	.	8cc\	.
16F#\LL	.	.	.	16a/LL	.	8cc\J	.
16E\JJ	.	32B/LL	.	16g/JJ	.	.	.
.	.	32c/JJJ	.	.	.	.	.
=37	=37	=37	=37	=37	=37	=37	=37
8D\	.	8d\L	.	8f#/L	.	4aa\	.
[4d\	.	8r	.	8r	.	.	.
.	.	8a\J	.	8cc/J	.	16ff#\LL	p
.	.	.	.	.	.	32ee\L	.
.	.	.	.	.	.	32ff#\JJJ	.
=38	=38	=38	=38	=38	=38	=38	=38
4.d\]	p	8g\L	p	8b/L	p	8gg\L	.
.	.	8f#\	.	8a/	.	8cc\	.
.	.	8g\J	.	8g/J	.	8b\J	.
=39	=39	=39	=39	=39	=39	=39	=39
8D\	.	8d\L	.	8f#/L	.	4aa\	.
[4d\	.	8r	.	8r	.	.	.
.	.	8a\J	.	8cc/J	.	16ff#\LL	p
.	.	.	.	.	.	32ee\L	.
.	.	.	.	.	.	32ff#\JJJ	.
=40	=40	=40	=40	=40	=40	=40	=40
4.d\]	p	8g\L	p	8b/L	p	8gg\L	.
.	.	8f#\	.	8a/	.	8cc\	.
.	.	8g\J	.	8g/J	.	8b\J	.
=41	=41	=41	=41	=41	=41	=41	=41
8D\L	.	8d\L	.	8f#/L	.	4aa\	.
8d\	.	8a\	.	8cc/	.	.	.
8d\J	.	8a\J	.	8cc/J	.	16ff#\LL	.
.	.	.	.	.	.	32ee\L	.
.	.	.	.	.	.	32ff#\JJJ	.
=42	=42	=42	=42	=42	=42	=42	=42
8d\	.	8a\	.	8cc\	.	8ccc\L	.
8r	.	8r	.	8r	.	8r	.
8r	.	8r	.	8r	.	8d\J	.
=43	=43	=43	=43	=43	=43	=43	=43
4.r	.	4.r	.	4.r	.	16b/LL	pp
.	.	.	.	.	.	16a#/	.
.	.	.	.	.	.	16b/	.
.	.	.	.	.	.	16cc/	.
.	.	.	.	.	.	16b/	.
.	.	.	.	.	.	16a/JJ	.
=44	=44	=44	=44	=44	=44	=44	=44
4.r	.	4.r	.	16e/LL	.	8g#/L	.
.	.	.	.	16d#/	.	.	.
.	.	.	.	16e/	.	8g#/	.
.	.	.	.	16f/	.	.	.
.	.	.	.	16e/	.	8g#/J	.
.	.	.	.	16d/JJ	.	.	.
=45	=45	=45	=45	=45	=45	=45	=45
4.r	.	4.r	.	8c#/L	.	16a/LL	.
.	.	.	.	.	.	16g#/	.
.	.	.	.	8c#/	.	16a/	.
.	.	.	.	.	.	16b/	.
.	.	.	.	8c#/J	.	16a/	.
.	.	.	.	.	.	16g/JJ	.
=46	=46	=46	=46	=46	=46	=46	=46
4.r	.	4.r	.	16d/LL	.	8f#/L	.
.	.	.	.	16c#/	.	.	.
.	.	.	.	16d/	.	8f#/	.
.	.	.	.	16e/	.	.	.
.	.	.	.	16d/	.	8f#/J	.
.	.	.	.	16c/JJ	.	.	.
=47	=47	=47	=47	=47	=47	=47	=47
4.r	.	4.r	.	16B/LL	.	8g\L	.
.	.	.	.	16d/	.	.	.
.	.	.	.	16B/	.	8.gg\	.
.	.	.	.	16d/	.	.	.
.	.	.	.	16g/	.	.	.
.	.	.	.	16B/JJ	.	16ff#\Jk	.
=48	=48	=48	=48	=48	=48	=48	=48
4.r	.	4.r	.	16c/LL	.	8ff#\L	.
.	.	.	.	16g/	.	.	.
.	.	.	.	16c/	.	8.ee\	.
.	.	.	.	16g/	.	.	.
.	.	.	.	16B/	.	.	.
.	.	.	.	16g/JJ	.	16dd\Jk	.
=49	=49	=49	=49	=49	=49	=49	=49
4.r	.	4.r	.	16A/LL	.	16dd\LL	.
.	.	.	.	16f#/	.	16cc#\	.
.	.	.	.	16A/	.	16cc#\	.
.	.	.	.	16f#/	.	16cc\	.
.	.	.	.	16G/	.	16cc\	.
.	.	.	.	16g/JJ	.	16b\JJ	.
=50	=50	=50	=50	=50	=50	=50	=50
4.r	.	4.r	.	16d/LL	.	16.dd\LL	.
.	.	.	.	16g/	.	.	.
.	.	.	.	.	.	32b\Jk	.
.	.	.	.	16d/	.	8a\J	.
.	.	.	.	16f#/	.	.	.
.	.	.	.	16a/	.	8r	.
.	.	.	.	16cc#/JJ	.	.	.
=51	=51	=51	=51	=51	=51	=51	=51
4.r	.	16b\LL	pp	16dd\LL	.	4.r	.
.	.	16a#\	.	16cc#\	.	.	.
.	.	16b\	.	16dd\	.	.	.
.	.	16cc\	.	16ee\	.	.	.
.	.	16b\	.	16dd\	.	.	.
.	.	16a\JJ	.	16cc\JJ	.	.	.
=52	=52	=52	=52	=52	=52	=52	=52
8E\L	.	8g#\L	.	8b\L	.	16ee\LL	pp
.	.	.	.	.	.	16dd#\	.
8E\	.	8g#\	.	8b\	.	16ee\	.
.	.	.	.	.	.	16ff\	.
8E\J	.	8g#\J	.	8b\J	.	16ee\	.
.	.	.	.	.	.	16dd\JJ	.
=53	=53	=53	=53	=53	=53	=53	=53
8A\	.	16a\LL	.	16cc\LL	.	8cc\	.
.	.	16g#\	.	16b\	.	.	.
8r	.	16a\	.	16cc\	.	8r	.
.	.	16b\	.	16dd\	.	.	.
8r	.	16a\	.	16cc\	.	8r	.
.	.	16g\JJ	.	16b\JJ	.	.	.
=54	=54	=54	=54	=54	=54	=54	=54
8D\L	.	8f#\L	.	8a/L	.	16dd\LL	.
.	.	.	.	.	.	16cc#\	.
8D\	.	8f#\	.	8a/	.	16dd\	.
.	.	.	.	.	.	16ee\	.
8D\J	.	8f#\J	.	8a/J	.	16dd\	.
.	.	.	.	.	.	16cc\JJ	.
=55	=55	=55	=55	=55	=55	=55	=55
8G\	.	16g\LL	.	16b/LL	.	8b\	.
.	.	16f#\	.	16a#/	.	.	.
8r	.	16g\	.	16b/	.	8r	.
.	.	16a\	.	16cc/	.	.	.
8r	.	16g\	.	16b/	.	8r	.
.	.	16f#\JJ	.	16a/JJ	.	.	.
=56	=56	=56	=56	=56	=56	=56	=56
4.r	.	16e\LL	.	16g/LL	.	16gg\LL	.
.	.	16d#\	.	16g/	.	16ff#\	.
.	.	16e\	.	16g/	.	16gg\	.
.	.	16f#\	.	16g/	.	16aa\	.
.	.	16e\	.	16g/	.	16gg\	.
.	.	16d\JJ	.	16g/JJ	.	16ff\JJ	.
=57	=57	=57	=57	=57	=57	=57	=57
4.r	.	16c/LL	.	16g/LL	.	16ee\LL	.
.	.	16B/	.	16g#/	.	16dd\	.
.	.	16A/	.	16a/	.	16cc\	.
.	.	16G/	.	16e/	.	16b\	.
.	.	16F#/	.	16f#/	.	16a\	.
.	.	16E/JJ	.	16c#/JJ	.	16g\JJ	.
=58	=58	=58	=58	=58	=58	=58	=58
4.r	.	8D/	.	8d/	.	8f#/	.
.	.	4E/	.	4d/	.	4g/	.
=59	=59	=59	=59	=59	=59	=59	=59
4.r	.	8F#/	.	8d/	.	8a/	.
.	.	4G/	.	4d/	.	4b\	.
=60	=60	=60	=60	=60	=60	=60	=60
4.r	.	16.c/LL	.	16.e/LL	.	16.dd\LL	.
.	.	32A/JJk	.	32a/JJk	.	32cc\JJk	.
.	.	8d/L	.	8g/L	.	8b/L	.
.	.	8D/J	.	8f#/J	.	8a/J	.
=61	=61	=61	=61	=61	=61	=61	=61
16BB\LL	<	16G\LL	<	16d/LL	.	16ddd\LL	<
16B\	<	16g\	<	16dd/	.	16ccc#\	<
16B\	.	16g\	.	16dd/	.	16ddd\	.
16B\	.	16g\	.	16dd/	.	16eee\	.
16B\	.	16g\	.	16dd/	.	16ddd\	.
16A\JJ	.	16f#\JJ	.	16cc/JJ	.	16ccc\JJ	.
=62	=62	=62	=62	=62	=62	=62	=62
16GG/LL	.	16D/LL	.	16B/LL	.	16bb\LL	.
16G/	.	16d/	.	16b/	.	16aa#\	.
16G/	.	16d/	.	16b/	.	16bb\	.
16G/	.	16d/	.	16b/	.	16ccc\	.
16G/	.	16d/	.	16b/	.	16bb\	.
16F#/JJ	.	16d#/JJ	.	16a/JJ	.	16aa\JJ	.
=63	=63	=63	=63	=63	=63	=63	=63
16E/LL	.	16e\LL	.	16g/LL	.	16gg\LL	.
16D/	.	16B\	.	16f#/	.	16ff#\	.
16C/	.	16c\	.	16e/	.	16ee\	.
16BB/	.	16G\	.	16d/	.	16dd\	.
16AA/	.	16f#\	.	16c/	.	16cc\	.
16GG/JJ	.	16g\JJ	.	16B/JJ	.	16b\JJ	.
=64	=64	=64	=64	=64	=64	=64	=64
8F#\	.	8c\	.	8d/	.	8a/	.
4F\	.	4G/	.	4d/	.	4b\	.
=65	=65	=65	=65	=65	=65	=65	=65
8E\	.	8G/	.	8c/	.	8cc\	.
4BB/	.	4G/	.	4f/	.	4dd#\	.
=66	=66	=66	=66	=66	=66	=66	=66
16.C/LL	.	16.G/LL	.	16.e/LL	.	16.ee\LL	.
32AA/JJk	.	32e/JJk	.	32a/JJk	.	32cc\JJk	.
8D/L	.	8d\L	.	8g/L	.	8b/L	.
8DD/J	.	8c\J	.	8f#/J	.	8a/J	.
=67	=67	=67	=67	=67	=67	=67	=67
8GG/	.	8B/	.	16g/LL	.	8g/	.
.	.	.	.	16dd/	p	.	.
8r	.	8r	.	16cc/	.	8r	.
.	.	.	.	16b/	.	.	.
8r	.	8r	.	16a/	.	8r	.
.	.	.	.	16g/JJ	.	.	.
=68	=68	=68	=68	=68	=68	=68	=68
4.r	.	4.r	.	16f#/LL	.	8dd\L	p
.	.	.	.	16e/	.	.	.
.	.	.	.	16d/	.	8dd\	.
.	.	.	.	16c/	.	.	.
.	.	.	.	16B/	.	8dd\J	.
.	.	.	.	16A/JJ	.	.	.
=69	=69	=69	=69	=69	=69	=69	=69
4.r	.	8r	.	16G/LL	.	4.dd\	.
.	.	.	.	16A/	.	.	.
.	.	16G/LL	p	16B/	.	.	.
.	.	16A/	.	16c/	.	.	.
.	.	16B/	.	16d/	.	.	.
.	.	16c/JJ	.	16e/JJ	.	.	.
=70	=70	=70	=70	=70	=70	=70	=70
4.r	.	16d\LL	.	16f#/LL	.	8dd\L	.
.	.	16e\	.	16g/	.	.	.
.	.	16f#\	.	16a/	.	8dd\	.
.	.	16g\	.	16b/	.	.	.
.	.	16a\	.	16cc/	.	8dd\J	.
.	.	16f#\JJ	.	16a/JJ	.	.	.
=71	=71	=71	=71	=71	=71	=71	=71
4.r	.	4g\	.	4b\	.	16dd\LL	.
.	.	.	.	.	.	16ddd\	.
.	.	.	.	.	.	16ccc\	.
.	.	.	.	.	.	16bb\	.
.	.	8r	.	8r	.	16aa\	.
.	.	.	.	.	.	16gg\JJ	.
=72	=72	=72	=72	=72	=72	=72	=72
8DD/L	p	8D/L	.	8c/L	.	16ff#\LL	.
.	.	.	.	.	.	16ee\	.
8DD/	.	8D/	.	8c/	.	16dd\	.
.	.	.	.	.	.	16cc\	.
8DD/J	.	8D/J	.	8c/J	.	16b\	.
.	.	.	.	.	.	16a\JJ	.
=73	=73	=73	=73	=73	=73	=73	=73
4.DD/	.	4.D/	.	8B/L	.	16g\LL	.
.	.	.	.	.	.	16a\	.
.	.	.	.	16G/L	.	16b\	.
.	.	.	.	16A/	.	16cc\	.
.	.	.	.	16B/	.	16dd\	.
.	.	.	.	16c/JJ	.	16ee\JJ	.
=74	=74	=74	=74	=74	=74	=74	=74
8D\L	.	8c\L	.	16d/LL	.	16ff#\LL	.
.	.	.	.	16e/	.	16gg\	.
8D\	.	8c\	.	16f#/	.	16aa\	.
.	.	.	.	16g/	.	16bb\	.
8D\J	.	8c\J	.	16a/	.	16ccc\	.
.	.	.	.	16f#/JJ	.	16aa\JJ	.
=75	=75	=75	=75	=75	=75	=75	=75
16G\LL	p	8B\L	.	4g/	.	4bb\	.
16d\	.	.	.	.	.	.	.
16c\	.	16r	.	.	.	.	.
16B\	.	16dd\L	p	.	.	.	.
16A\	.	16cc\	.	8r	.	8r	.
16G\JJ	.	16b\JJ	.	.	.	.	.
=76	=76	=76	=76	=76	=76	=76	=76
16F#/LL	.	16a\LL	.	8dd\L	.	8ddd\L	.
16E/	.	16g\	.	.	.	.	.
16D/	.	16f#\	.	8dd\	.	8ddd\	.
16C/	.	16e\	.	.	.	.	.
16BB/	.	16d\	.	8dd\J	.	8ddd\J	.
16AA/JJ	.	16c\JJ	.	.	.	.	.
=77	=77	=77	=77	=77	=77	=77	=77
16GG/LL	.	8B\L	.	8.dd\L	.	8.ddd\L	.
16D/	.	.	.	.	.	.	.
16BB/	.	16r	.	.	.	.	.
16GG/	.	16g\L	.	16b\L	.	16ddd\L	.
16D/	.	16a\	.	16cc\	.	16fff#\	.
16DD/JJ	.	16a\JJ	.	16cc\JJ	.	16ddd\JJ	.
=78	=78	=78	=78	=78	=78	=78	=78
16GG/LL	.	8g\L	.	8b\L	.	8ggg\L	.
16D/	.	.	.	.	.	.	.
16BB/	.	16r	.	16r	.	16r	.
16GG/	.	16g\L	.	16b\L	.	16ddd\L	.
16D/	.	16a\	.	16cc\	.	16fff#\	.
16DD/JJ	.	16a\JJ	.	16cc\JJ	.	16ddd\JJ	.
=79	=79	=79	=79	=79	=79	=79	=79
16GG/LL	<	16g\LL	<	16b\LL	<	16ggg\LL	<
16BB/	.	16g\	.	16b\	.	16ddd\	.
16D/	.	16a\	.	16cc\	.	16fff#\	.
16DD/	.	16a\	.	16cc\	.	16ddd\	.
16GG/	.	16g\	.	16b\	.	16ggg\	.
16BB/JJ	.	16g\JJ	.	16b\JJ	.	16ddd\JJ	.
=80	=80	=80	=80	=80	=80	=80	=80
16D/LL	.	16a\LL	.	16cc\LL	.	16fff#\LL	.
16DD/	.	16a\	.	16cc\	.	16ddd\	.
16GG/	.	16g\	.	16b\	.	16ggg\	.
16BB/	.	16g\	.	16b\	.	16ddd\	.
16D/	.	16a\	.	16cc\	.	16fff#\	.
16DD/JJ	.	16a\JJ	.	16cc\JJ	.	16ddd\JJ	.
=81	=81	=81	=81	=81	=81	=81	=81
8GG\L	.	8g\L	.	8b\L	.	8ggg\L	.
8r	.	8r	.	8r	.	8r	.
8g\J	pp	8b\J	pp	8dd\J	pp	8gg\J	pp
=82	=82	=82	=82	=82	=82	=82	=82
8g\	.	8b\	.	8dd\	.	8gg\	.
8r	.	8r	.	8r	.	8r	.
8r	.	8r	.	8r	.	8r	.
=83:|!	=83:|!	=83:|!	=83:|!	=83:|!	=83:|!	=83:|!	=83:|!
*>B	*>B	*>B	*>B	*>B	*>B	*>B	*>B
4.r	.	8G/L	p	4.r	.	4.r	.
.	.	8G/	.	.	.	.	.
.	.	8G/J	.	.	.	.	.
=84	=84	=84	=84	=84	=84	=84	=84
4.r	.	8c\L	.	8e-/L	p	4.r	.
.	.	8c\J	.	8e-/	.	.	.
.	.	16c/LL	.	8e-/J	.	.	.
.	.	16B-/JJ	.	.	.	.	.
=85	=85	=85	=85	=85	=85	=85	=85
4.r	.	8A-/L	.	8cc\L	.	8ee-\L	p
.	.	8A-/J	.	8cc\J	.	8ee-\	.
.	.	16A-/LL	.	16cc\LL	.	8ee-\J	.
.	.	16G/JJ	.	16b-\JJ	.	.	.
=86	=86	=86	=86	=86	=86	=86	=86
4.r	.	8F/L	.	8a-/L	.	8aa-\L	.
.	.	8f/J	.	8a-/J	.	8aa-\J	.
.	.	16f\LL	.	16a-/LL	.	16aa-\LL	.
.	.	16e-\JJ	.	16a/JJ	.	16gg\JJ	.
=87	=87	=87	=87	=87	=87	=87	=87
4.r	.	8d\L	.	8b-\L	.	8ff\L	.
.	.	8d\J	.	8b-\J	.	8ff\J	.
.	.	16d\LL	.	16b-/LL	.	16ff\LL	.
.	.	16e-\JJ	.	16a/JJ	.	16gg\JJ	.
=88	=88	=88	=88	=88	=88	=88	=88
4.r	.	8d\L	.	8b-\L	.	8ff\L	.
.	.	8d\J	.	8b-\J	.	8ff\J	.
.	.	16d\LL	.	16b-/LL	.	16ff\LL	.
.	.	16e-\JJ	.	16a/JJ	.	16gg\JJ	.
=89	=89	=89	=89	=89	=89	=89	=89
4.r	.	8d\	.	8b-\	.	8ff\	.
.	.	8r	.	8r	.	8r	.
.	.	8r	.	8r	.	8r	.
=90	=90	=90	=90	=90	=90	=90	=90
4.r	.	8r	.	8r	.	8r	.
.	.	8r	.	8r	.	8r	.
.	.	16B-/LL	pp	16d/LL	pp	16f/LL	pp
.	.	16A/JJ	.	16e-/JJ	.	16g-/JJ	.
=91	=91	=91	=91	=91	=91	=91	=91
4.r	.	8B-/L	.	8d/L	.	8f/L	.
.	.	8B-/J	.	8d/J	.	8f/J	.
.	.	16B-/LL	.	16d/LL	.	16f/LL	.
.	.	16A/JJ	.	16e-/JJ	.	16g-/JJ	.
=92	=92	=92	=92	=92	=92	=92	=92
4.r	.	8B-/L	.	8d/L	.	8f/L	.
.	.	8B-/J	.	8d/J	.	8f/J	.
.	.	16B-/LL	.	16d/LL	.	16f/LL	.
.	.	16A/JJ	.	16e-/JJ	.	16g-/JJ	.
=93	=93	=93	=93	=93	=93	=93	=93
4.r	.	8B-/	.	8d/	.	8f/	.
.	.	8r	.	8r	.	8r	.
.	.	8r	.	8r	.	8r	.
=94	=94	=94	=94	=94	=94	=94	=94
8BB-/L	f	4.r	.	4.r	.	4.r	.
8BB-/	.	.	.	.	.	.	.
8BB-/J	.	.	.	.	.	.	.
=95	=95	=95	=95	=95	=95	=95	=95
16E-\LL	.	4.r	.	4.r	.	4.r	.
16B-\	.	.	.	.	.	.	.
16A-\	.	.	.	.	.	.	.
16G\	.	.	.	.	.	.	.
16F\	.	.	.	.	.	.	.
16E-\JJ	.	.	.	.	.	.	.
=96	=96	=96	=96	=96	=96	=96	=96
16D/LL	.	4.r	.	4.r	.	8b-\L	f
16C/	.	.	.	.	.	.	.
16BB-/	.	.	.	.	.	8b-\	.
16AA-/	.	.	.	.	.	.	.
16GG/	.	.	.	.	.	8b-\J	.
16FF/JJ	.	.	.	.	.	.	.
=97	=97	=97	=97	=97	=97	=97	=97
8GG/L	.	4.r	.	4.r	.	16ee-\LL	.
.	.	.	.	.	.	16bb-\	.
8EE-/J	.	.	.	.	.	16aa-\	.
.	.	.	.	.	.	16gg\	.
8r	.	.	.	.	.	16ff\	.
.	.	.	.	.	.	16ee-\JJ	.
=98	=98	=98	=98	=98	=98	=98	=98
4.r	.	8G/L	f	4.r	.	16dd/LL	.
.	.	.	.	.	.	16cc/	.
.	.	8G/	.	.	.	16b/	.
.	.	.	.	.	.	16a-/	.
.	.	8G/J	.	.	.	16g/	.
.	.	.	.	.	.	16f/JJ	.
=99	=99	=99	=99	=99	=99	=99	=99
4.r	.	16c\LL	.	4.r	.	8e-/L	.
.	.	16g\	.	.	.	.	.
.	.	16f\	.	.	.	8c/J	.
.	.	16e-\	.	.	.	.	.
.	.	16d\	.	.	.	8r	.
.	.	16c\JJ	.	.	.	.	.
=100	=100	=100	=100	=100	=100	=100	=100
4.r	.	16B/LL	.	8g/L	f	4.r	.
.	.	16A-/	.	.	.	.	.
.	.	16G/	.	8g/	.	.	.
.	.	16F/	.	.	.	.	.
.	.	16E-/	.	8g/J	.	.	.
.	.	16D/JJ	.	.	.	.	.
=101	=101	=101	=101	=101	=101	=101	=101
4.r	.	8E-/L	.	16cc\LL	.	4.r	.
.	.	.	.	16gg\	.	.	.
.	.	8C/J	.	16ff\	.	.	.
.	.	.	.	16ee\	.	.	.
.	.	8r	.	16dd-\	.	.	.
.	.	.	.	16cc\JJ	.	.	.
=102	=102	=102	=102	=102	=102	=102	=102
4.r	.	4.r	.	16dd-/LL	p	8ee-\L	p
.	.	.	.	16cc/	.	.	.
.	.	.	.	16dd-/	.	8ee-\	.
.	.	.	.	16b-/	.	.	.
.	.	.	.	16g/	.	8ee-\J	.
.	.	.	.	16d-/JJ	.	.	.
=103	=103	=103	=103	=103	=103	=103	=103
8AA-/	p	8r	.	8c/L	.	16ee-\LL	.
.	.	.	.	.	.	16eee-\	.
8r	.	8c\	p	8e-/J	.	16ddd-\	.
.	.	.	.	.	.	16ccc\	.
8r	.	8r	.	8r	.	16bb-\	.
.	.	.	.	.	.	16aa-\JJ	.
=104	=104	=104	=104	=104	=104	=104	=104
8E-\	.	8r	.	8r	.	16gg\LL	.
.	.	.	.	.	.	16ff\	.
8r	.	8d-\	.	8B-/ 8g/	.	16ee-\	.
.	.	.	.	.	.	16dd-\	.
8r	.	8r	.	8r	.	16cc\	.
.	.	.	.	.	.	16b-\JJ	.
=105	=105	=105	=105	=105	=105	=105	=105
8A-\	.	8r	.	8r	.	16a-\LL	.
.	.	.	.	.	.	16b-\	.
8r	.	8e-\	.	8c/ 8a-/	.	16cc\	.
.	.	.	.	.	.	16dd-\	.
8r	.	8r	.	8r	.	16ee-\	.
.	.	.	.	.	.	16ff\JJ	.
=106	=106	=106	=106	=106	=106	=106	=106
8E-\	.	8r	.	8r	.	16gg\LL	.
.	.	.	.	.	.	16aa-\	.
8r	.	8d-\	.	8g/ 8b-/	.	16bb-\	.
.	.	.	.	.	.	16ccc\	.
8r	.	8r	.	8r	.	16ddd-\	.
.	.	.	.	.	.	16bb-\JJ	.
=107	=107	=107	=107	=107	=107	=107	=107
8E\	>	8r	>	8r	>	16gg\LL	>
.	.	.	.	.	.	16aa\	.
8r	.	8d-\	.	8g/ 8b-/	.	16bb-\	.
.	.	.	.	.	.	16ccc\	.
8r	.	8r	.	8r	.	16ddd-\	.
.	.	.	.	.	.	16bb-\JJ	.
=108	=108	=108	=108	=108	=108	=108	=108
8F\	.	8r	.	8r	.	16ff\LL	.
.	.	.	.	.	.	16aa\	.
8r	.	8d-\	.	8f/ 8b-/	.	16bb-\	.
.	.	.	.	.	.	16ccc\	.
8r	.	8r	.	8r	.	16ddd-\	.
.	.	.	.	.	.	16bb-\JJ	.
=109	=109	=109	=109	=109	=109	=109	=109
8G-\	.	8r	.	8r	.	16ee\LL	.
.	.	.	.	.	.	16aa\	.
8r	.	8d-\	.	8e/ 8b-/	.	16bb-\	.
.	.	.	.	.	.	16ccc\	.
8r	.	8r	.	8r	.	16ddd-\	.
.	.	.	.	.	.	16bb-\JJ	.
=110	=110	=110	=110	=110	=110	=110	=110
8G\	.	8r	.	8r	.	16ddd-\LL	.
.	.	.	.	.	.	16bb-\	.
8r	.	8d-\	.	8e/ 8b-/	.	16ddd-\	.
.	.	.	.	.	.	16bb-\	.
8r	.	8r	.	8r	.	16ddd-\	.
.	.	.	.	.	.	16bb-\JJ	.
=111	=111	=111	=111	=111	=111	=111	=111
4.r	.	4.r	.	4.r	.	8ddd-\L	.
.	.	.	.	.	.	8bb-\	.
.	.	.	.	.	.	8gg\J	.
=112	=112	=112	=112	=112	=112	=112	=112
4.r	.	4.r	.	4.r	.	8ee\L	.
.	.	.	.	.	.	8cc#\	.
.	.	.	.	.	.	8b-\J	.
=113	=113	=113	=113	=113	=113	=113	=113
4.r	.	4.r	.	4.r	.	8g/L	.
.	.	.	.	.	.	8e/	.
.	.	.	.	.	.	8c#/J	.
=114	=114	=114	=114	=114	=114	=114	=114
8C#/L	pp	8B-/L	pp	8e/L	pp	8g/L	pp
8C#/	.	8B-/	.	8e/	.	8g/	.
8C#/J	.	8B-/J	.	8e/J	.	8g/J	.
=115	=115	=115	=115	=115	=115	=115	=115
8D\L	.	8A/L	.	8e/L	.	8g/L	.
8D\	.	8A/	.	8e/	.	8g/	.
8D\J	.	8A/J	.	8e/J	.	8g/J	.
=116	=116	=116	=116	=116	=116	=116	=116
8D\L	.	8A/L	.	8d/L	.	8f/L	.
8D\	.	8A/	.	8d/	.	8f/	.
8D\J	.	8A/J	.	8d/J	.	8f/J	.
=117	=117	=117	=117	=117	=117	=117	=117
8GG#/L	.	8B/L	.	8d/L	.	8f/L	.
8GG#/	.	8B/	.	8d/	.	8f/	.
8GG#/J	.	8B/J	.	8d/J	.	8f/J	.
=118	=118	=118	=118	=118	=118	=118	=118
8GG#/L	.	8B/L	.	8d/L	.	8e/L	.
8GG#/	.	8B/	.	8d/	.	8e/	.
8GG#/J	.	8B/J	.	8d/J	.	8e/J	.
=119	=119	=119	=119	=119	=119	=119	=119
8AA/L	.	8A/L	.	8c/L	.	8e/L	.
8AA/	.	8A/	.	8c/	.	8e/	.
8AA/J	.	8A/J	.	8c/J	.	8e/J	.
=120	=120	=120	=120	=120	=120	=120	=120
8FF/L	.	8A/L	.	8d/L	.	8a/L	.
8FF/	.	8A/	.	8d/	.	8a/	.
8FF/J	.	8A/J	.	8d/J	.	8a/J	.
=121	=121	=121	=121	=121	=121	=121	=121
8EE/L	.	8B/	.	8e/	.	8g#/	.
8E/	.	8r	.	8r	.	8r	.
8E/J	.	8r	.	8r	.	8r	.
=122	=122	=122	=122	=122	=122	=122	=122
4.A\	.	8r	.	8r	.	8r	.
.	.	8f#\L	.	8e/L 8cc/	.	8dd#\L	.
.	.	8f#\J	.	8e/J 8cc/	.	8dd#\J	.
=123	=123	=123	=123	=123	=123	=123	=123
8E\L	.	8g#\	.	8e/ 8b/	.	8ee\	.
8E\	.	8r	.	8r	.	8r	.
8E\J	.	8r	.	8r	.	8r	.
=124	=124	=124	=124	=124	=124	=124	=124
4.A\	.	8r	.	8r	.	8r	.
.	.	8a\L	.	8e/L 8cc/	.	8ff\L	.
.	.	8a\J	.	8e/J 8cc/	.	8ff\J	.
=125	=125	=125	=125	=125	=125	=125	=125
8E/L	.	8g#\	.	8e/ 8b/	.	8ee\	.
8EE/	.	8r	.	8r	.	8r	.
8EE/J	.	8r	.	8r	.	8r	.
=126	=126	=126	=126	=126	=126	=126	=126
4.AA/	.	8r	.	8r	.	8r	.
.	.	8E/L 8c/	.	8f#/L	.	8dd#\L	.
.	.	8E/J 8c/	.	8f#/J	.	8dd#\J	.
=127	=127	=127	=127	=127	=127	=127	=127
8EE/L	.	8E/ 8B/	.	8g#/	.	8ee\	.
8EE/	.	8r	.	8r	.	8r	.
8EE/J	.	8r	.	8r	.	8r	.
=128	=128	=128	=128	=128	=128	=128	=128
4.AA/	.	8r	.	8r	.	8r	.
.	.	8E/L 8c/	.	8a/L	.	8ff\L	.
.	.	8E/J 8c/	.	8a/J	.	8ff\J	.
=129	=129	=129	=129	=129	=129	=129	=129
8EE/	.	8E/ 8B/	.	8g#/	.	8ee\	.
4AA/	.	4E/ 4c/	.	4a/	.	4ff\	.
=130	=130	=130	=130	=130	=130	=130	=130
8EE/	.	8E/ 8B/	.	8g#/	.	8ee\	.
4AA/	.	4E/ 4c/	.	4a/	.	4ff\	.
=131	=131	=131	=131	=131	=131	=131	=131
8EE/L	.	8E/ 8B/	.	8g#/	.	8ee\	.
8E/	pp	8r	.	8r	.	8r	.
8E/J	.	8r	.	8r	.	8r	.
=132	=132	=132	=132	=132	=132	=132	=132
[4.E\	.	4.r	.	8r	.	4.r	.
.	.	.	.	8G#/L	pp	.	.
.	.	.	.	8G#/J	.	.	.
=133	=133	=133	=133	=133	=133	=133	=133
4.E\_	.	8r	.	[4.G#/	.	4.r	.
.	.	8B/L	pp	.	.	.	.
.	.	8B/J	.	.	.	.	.
=134	=134	=134	=134	=134	=134	=134	=134
4.E\_	.	[4.B/	.	4.G#/_	.	8r	.
.	.	.	.	.	.	8e/L	pp
.	.	.	.	.	.	8e/J	.
=135	=135	=135	=135	=135	=135	=135	=135
8E\L]	.	4.B/_	.	4.G#/_	.	[4.e/	.
8D\	.	.	.	.	.	.	.
8D\J	.	.	.	.	.	.	.
=136	=136	=136	=136	=136	=136	=136	=136
[4.D\	.	4.B/_	.	8G#/L]	.	4.e/_	.
.	.	.	.	8G#/	.	.	.
.	.	.	.	8G#/J	.	.	.
=137	=137	=137	=137	=137	=137	=137	=137
4.D\_	.	8B/L]	.	[4.G#/	.	4.e/_	.
.	.	8B/	.	.	.	.	.
.	.	8B/J	.	.	.	.	.
=138	=138	=138	=138	=138	=138	=138	=138
4.D\_	.	[4.B/	.	4.G#/_	.	8e/L]	.
.	.	.	.	.	.	8f/	.
.	.	.	.	.	.	8f/J	.
=139	=139	=139	=139	=139	=139	=139	=139
8D\L]	.	4.B/_	.	4.G#/_	.	[4.f/	.
8D\	.	.	.	.	.	.	.
8D\J	.	.	.	.	.	.	.
=140	=140	=140	=140	=140	=140	=140	=140
[4.D\	.	4.B/_	.	8G#/L]	.	4.f/_	.
.	.	.	.	8G/	.	.	.
.	.	.	.	8G/J	.	.	.
=141	=141	=141	=141	=141	=141	=141	=141
4.D\_	.	8B/L]	.	[4.G/	.	4.f/_	.
.	.	8B/	.	.	.	.	.
.	.	8B/J	.	.	.	.	.
=142	=142	=142	=142	=142	=142	=142	=142
4D\]	.	4B/	.	4G/]	.	8f/L]	.
.	.	.	.	.	.	8f/	pp
8r	.	8r	.	8r	.	8f/J	.
=143	=143	=143	=143	=143	=143	=143	=143
4.r	.	4.r	.	4.r	.	8f/L	.
.	.	.	.	.	.	8f/	.
.	.	.	.	.	.	8f/J	.
=144	=144	=144	=144	=144	=144	=144	=144
4.r	.	4.r	.	4.r	.	8f/L	.
.	.	.	.	.	.	8f/	.
.	.	.	.	.	.	8f/J	.
=145	=145	=145	=145	=145	=145	=145	=145
4.r	.	4.r	.	4.r	.	8f/L	.
.	.	.	.	.	.	8f/	.
.	.	.	.	.	.	8f/J	.
=146	=146	=146	=146	=146	=146	=146	=146
8r	.	4.r	.	8g/L	pp	8f/L	.
8r	.	.	.	8g/	.	8f/	.
16B\LL	pp	.	.	8g/J	.	8f/J	.
16B\JJ	.	.	.	.	.	.	.
=147	=147	=147	=147	=147	=147	=147	=147
16c\LL	.	8r	.	8cc\L	.	4e/	.
16G\	.	.	.	.	.	.	.
16E\	.	16.g\LL	pp	8cc\J	.	.	.
16C\	.	.	.	.	.	.	.
.	.	32g\k	.	.	.	.	.
16D\	.	16.g\	.	16cc\LL	.	8r	.
16E\JJ	.	.	.	16b\JJ	.	.	.
.	.	32g\JJk	.	.	.	.	.
=148	=148	=148	=148	=148	=148	=148	=148
16F\LL	.	8c\	.	16a/LL	.	4.r	.
16E\	.	.	.	16g/	.	.	.
16F\	.	[4f\	.	16f/	.	.	.
16G\J	.	.	.	16e/	.	.	.
[8A\J	.	.	.	16d/	.	.	.
.	.	.	.	16c/JJ	.	.	.
=149	=149	=149	=149	=149	=149	=149	=149
16A\LL]	.	8f\L]	.	8B/L	.	4.r	.
16D\	.	.	.	.	.	.	.
16G\	.	8B\	.	8d/	.	.	.
16F\	.	.	.	.	.	.	.
16E\	.	8B\J	.	8g/J	.	.	.
16D\JJ	.	.	.	.	.	.	.
=150	=150	=150	=150	=150	=150	=150	=150
16C\LL	.	8c\	.	8e/L	.	4.r	.
16G\	.	.	.	.	.	.	.
16c\	.	8r	.	8c/	.	.	.
16B\	.	.	.	.	.	.	.
16A\	.	8r	.	[8a/J	.	.	.
16G\JJ	.	.	.	.	.	.	.
=151	=151	=151	=151	=151	=151	=151	=151
16F#/LL	.	8d\L	.	8a/L]	.	8r	.
16E/	.	.	.	.	.	.	.
16D/	.	8d\	.	8f#/	.	8r	.
16C/	.	.	.	.	.	.	.
16BB/	.	8d\J	.	8dd/J	.	16ff#\LL	p
16AA/JJ	.	.	.	.	.	16ff#\JJ	.
=152	=152	=152	=152	=152	=152	=152	=152
8GG/L	.	8g\L	.	8b\L	.	16gg\LL	.
.	.	.	.	.	.	16dd\	.
8G/J	.	8g\	.	16.dd\L	.	16b\	.
.	.	.	.	.	.	16g\	.
.	.	.	.	32dd\k	.	.	.
8r	.	16g\L	.	16.dd\	.	16a\	.
.	.	16f\JJ	.	.	.	16b\JJ	.
.	.	.	.	32dd\JJk	.	.	.
=153	=153	=153	=153	=153	=153	=153	=153
8GG/L	.	16e/LL	.	8g/	.	16cc\LL	.
.	.	16d/	.	.	.	16b\	.
8G/J	.	16c/	.	[4cc\	.	16cc\	.
.	.	16B/	.	.	.	16dd\J	.
8r	.	16A/	.	.	.	[8ee\J	.
.	.	16G/JJ	.	.	.	.	.
=154	=154	=154	=154	=154	=154	=154	=154
[4.GG/	.	8F#/L	.	8cc/L]	.	16ee\LL]	.
.	.	.	.	.	.	16a\	.
.	.	8A/	.	8f#/	.	16dd\	.
.	.	.	.	.	.	16cc\	.
.	.	[8d/J	.	8f#/J	.	16b\	.
.	.	.	.	.	.	16a\JJ	.
=155	=155	=155	=155	=155	=155	=155	=155
8GG/L]	.	8d\L]	.	8g/	.	16g\LL	.
.	.	.	.	.	.	16dd\	.
8G/	.	8B\J	.	8r	.	16gg\	.
.	.	.	.	.	.	16ff\	.
8G/J	.	16b\LL	.	8r	.	16ee\	.
.	.	16b\JJ	.	.	.	16dd\JJ	.
=156	=156	=156	=156	=156	=156	=156	=156
8c\L	.	16cc\LL	.	4.r	.	8ee\L	.
.	.	16g\	.	.	.	.	.
8c\	.	16e\	.	.	.	16.gg\L	.
.	.	16c\	.	.	.	.	.
.	.	.	.	.	.	32gg\k	.
16c\L	.	16d\	.	.	.	16.gg\	.
16B\JJ	.	16e\JJ	.	.	.	.	.
.	.	.	.	.	.	32gg\JJk	.
=157	=157	=157	=157	=157	=157	=157	=157
16A\LL	.	16f\LL	.	4.r	.	8cc\	.
16G\	.	16e\	.	.	.	.	.
16F\	.	16f\	.	.	.	[4ff\	.
16E\	.	16g\J	.	.	.	.	.
16D\	.	[8a\J	.	.	.	.	.
16C\JJ	.	.	.	.	.	.	.
=158	=158	=158	=158	=158	=158	=158	=158
8BB\L	.	16a\LL]	.	4.r	.	8ff/L]	.
.	.	16d\	.	.	.	.	.
8D\	.	16g\	.	.	.	8B/	.
.	.	16f\	.	.	.	.	.
[8G\J	.	16e\	.	.	.	8B/J	.
.	.	16d\JJ	.	.	.	.	.
=159	=159	=159	=159	=159	=159	=159	=159
8G\L]	.	16e/LL	.	8r	.	8c/L	.
.	.	16A/	.	.	.	.	.
8F#\	.	16d/	.	8r	.	8dd/	.
.	.	16c/	.	.	.	.	.
8c\J	.	16B/	.	16f#/LL	.	8dd/J	.
.	.	16A/JJ	.	16f#/JJ	.	.	.
=160	=160	=160	=160	=160	=160	=160	=160
8B\	.	8d\	.	16g/LL	.	8gg\L	.
.	.	.	.	16d/	.	.	.
16.D\LL	.	8r	.	16B/	.	8gg\J	.
.	.	.	.	16G/	.	.	.
32D\k	.	.	.	.	.	.	.
16.D\	.	8r	.	16A/	.	16gg\LL	.
.	.	.	.	16B/JJ	.	16ff\JJ	.
32D\JJk	.	.	.	.	.	.	.
=161	=161	=161	=161	=161	=161	=161	=161
8GG/	.	8r	.	16c/LL	.	16ee\LL	.
.	.	.	.	16B/	.	16dd\	.
[4C/	.	16e\LL	.	16c/	.	16cc\	.
.	.	16d\	.	16d/J	.	16b\	.
.	.	16c\	.	[8e/J	.	16a\	.
.	.	16B\JJ	.	.	.	16g\JJ	.
=162	=162	=162	=162	=162	=162	=162	=162
8C/L]	.	8A/	.	16e/LL]	.	8f#/L	.
.	.	.	.	16A/	.	.	.
8FF#/	.	8D/L	.	16d/	.	8a/	.
.	.	.	.	16c/	.	.	.
8FF#/J	.	8D/J	.	16B/	.	[8dd/J	.
.	.	.	.	16A/JJ	.	.	.
=163	=163	=163	=163	=163	=163	=163	=163
8GG/L	.	8G/L	.	8B/L	.	16dd/LL]	.
.	.	.	.	.	.	16cc/	.
8D/	.	8r	.	8gg/	.	16b/	.
.	.	.	.	.	.	16a/	.
[8G/J	.	8B/J	.	8gg/J	.	16g/	.
.	.	.	.	.	.	16f/JJ	.
=164	=164	=164	=164	=164	=164	=164	=164
16G\LL]	.	8g/L	.	8ccc\	.	8e/L	.
16F\	.	.	.	.	.	.	.
16E\	.	8C/	.	8r	.	8g/	.
16D\	.	.	.	.	.	.	.
16C\	.	8C/J	.	8r	.	[8cc/J	.
16BB-\JJ	.	.	.	.	.	.	.
=165	=165	=165	=165	=165	=165	=165	=165
8AA/L	.	8F/L	.	8r	.	16cc/LL]	.
.	.	.	.	.	.	16b/	.
8C/	.	8r	.	8c/L	.	16a/	.
.	.	.	.	.	.	16g/	.
[8F/J	.	[8A/J	.	8c/J	.	16f/	.
.	.	.	.	.	.	16e/JJ	.
=166	=166	=166	=166	=166	=166	=166	=166
16F\LL]	<	16A/LL]	<	16a/LL	<	16d\LL	<
16E\	.	16A/	.	16g/	.	16gg\	.
16A\	.	16A/	.	16f/	.	16ff\	.
16G\	.	16A/	.	16e/	.	16ee\	.
16F\	.	16A/	.	16d/	.	16dd\	.
16E\JJ	.	16A/JJ	.	16c#/JJ	.	16cc#\JJ	.
=167	=167	=167	=167	=167	=167	=167	=167
16F\LL	.	16A/LL	.	16a/LL	.	16aa\LL	.
16C#\	.	16A/	.	16g/	.	16gg\	.
16D\	.	16A/	.	16f/	.	16ff\	.
16E\	.	16A/	.	16e/	.	16ee\	.
16F\	.	16A/	.	16d/	.	16dd\	.
16F#\JJ	.	16A/JJ	.	16c/JJ	.	16cc\JJ	.
=168	=168	=168	=168	=168	=168	=168	=168
8G\	p	8G/	p	16d/LL	p	8b\L	p
.	.	.	.	16B/	.	.	.
8r	.	8B\L	.	16g/	.	8.gg\	.
.	.	.	.	16G/	.	.	.
8r	.	8d\J	.	16g/	.	.	.
.	.	.	.	16G/JJ	.	16ff\Jk	.
=169	=169	=169	=169	=169	=169	=169	=169
4.r	.	8G/	.	16g/LL	.	8ee\L	.
.	.	.	.	16G/	.	.	.
.	.	8c\L	.	16g/	.	8.gg\	.
.	.	.	.	16G/	.	.	.
.	.	8e\J	.	16g/	.	.	.
.	.	.	.	16G/JJ	.	16cc\Jk	.
=170	=170	=170	=170	=170	=170	=170	=170
8GG/L	.	8G/	.	16g/LL	.	8b\L	.
.	.	.	.	16G/	.	.	.
8F/	.	8d\L	.	16g/	.	8b\	.
.	.	.	.	16G/	.	.	.
8D/J	.	8f\J	.	16g/	.	8b\J	.
.	.	.	.	16G/JJ	.	.	.
=171	=171	=171	=171	=171	=171	=171	=171
8GG/L	.	8G/	.	16g/LL	.	8cc\L	.
.	.	.	.	16G/	.	.	.
8E/	.	8c\L	.	16g/	.	8cc\	.
.	.	.	.	16G/	.	.	.
8C/J	.	8e\J	.	16g/	.	8cc\J	.
.	.	.	.	16G/JJ	.	.	.
=172	=172	=172	=172	=172	=172	=172	=172
8GG/	.	8G/	.	16g/LL	.	8dd\L	.
.	.	.	.	16G/	.	.	.
8r	.	8B\L	.	16g/	.	8.gg\	.
.	.	.	.	16G/	.	.	.
8r	.	8d\J	.	16g/	.	.	.
.	.	.	.	16G/JJ	.	16ff\Jk	.
=173	=173	=173	=173	=173	=173	=173	=173
4.r	.	8G/	.	16g/LL	.	8ee\L	.
.	.	.	.	16G/	.	.	.
.	.	8c\L	.	16g/	.	8.gg\	.
.	.	.	.	16G/	.	.	.
.	.	8e\J	.	16g/	.	.	.
.	.	.	.	16G/JJ	.	16cc\Jk	.
=174	=174	=174	=174	=174	=174	=174	=174
8GG/	.	8G/	.	16g/LL	.	8b\L	.
.	.	.	.	16G/	.	.	.
8F\L	.	8d\L	.	16g/	.	8b\	.
.	.	.	.	16G/	.	.	.
8D\J	.	8f\J	.	16g/	.	8b\J	.
.	.	.	.	16G/JJ	.	.	.
=175	=175	=175	=175	=175	=175	=175	=175
8GG/	.	8G/L	.	16g/LL	.	8cc\L	.
.	.	.	.	16G/	.	.	.
8E\L	.	8c/	.	16g/	.	8cc\	.
.	.	.	.	16G/	.	.	.
8C\J	.	8e/J	.	16g/	.	8cc\J	.
.	.	.	.	16G/JJ	.	.	.
=176	=176	=176	=176	=176	=176	=176	=176
16GG/LL	.	8G/L	.	8B/L	.	8dd\L	.
16G/	.	.	.	.	.	.	.
16G/	.	16r	.	16r	.	16r	.
16G/	.	16d/L	.	16B/L	.	16gg\L	.
16E/	.	16G/	.	16g/	.	16gg\	.
16C/JJ	.	16c/JJ	.	16g/JJ	.	16ccc\JJ	.
=177	=177	=177	=177	=177	=177	=177	=177
16GG/LL	.	8B/L	.	8g/L	.	8bb\L	.
16G/	.	.	.	.	.	.	.
16G/	.	16r	.	16r	.	16r	.
16G/	.	16d/L	.	16B/L	.	16gg\L	.
16E/	.	16G/	.	16g/	.	16gg\	.
16C/JJ	.	16c/JJ	.	16g/JJ	.	16ccc\JJ	.
=178	=178	=178	=178	=178	=178	=178	=178
16GG/LL	<	16B/LL	<	16e/LL	<	16bb\LL	<
16G/	<	16d/	<	16B/	.	16gg\	<
16E/	.	16G/	.	16g/	.	16gg\	.
16C/	.	16c/	.	16g/	.	16ccc\	.
16GG/	.	16B/	.	16g/	.	16bb\	.
16G/JJ	.	16d/JJ	.	16B/JJ	.	16gg\JJ	.
=179	=179	=179	=179	=179	=179	=179	=179
16E/LL	.	16G/LL	.	16g/LL	.	16gg\LL	.
16C/	.	16c/	.	16g/	.	16ccc\	.
16GG/	.	16B/	.	16g/	.	16bb\	.
16G/	.	16d/	.	16B/	.	16gg\	.
16E/	.	16G/	.	16g/	.	16gg\	.
16C/JJ	.	16c/JJ	.	16g/JJ	.	16ccc\JJ	.
=180	=180	=180	=180	=180	=180	=180	=180
8GG/L	f	8g\L	f	8dd/L	f	8bb/L	f
8G/J	.	8G\J	.	8G/J 8g/	.	8G/J 8g/	.
8r	.	8r	.	8r	.	8r	.
=181	=181	=181	=181	=181	=181	=181	=181
8C/L	f	4.r	.	4.r	.	4.r	.
8C/	.	.	.	.	.	.	.
8C/J	.	.	.	.	.	.	.
=182	=182	=182	=182	=182	=182	=182	=182
8A\L	.	8c\L	f	4.r	.	4.r	.
8A\J	.	8c\	.	.	.	.	.
16A\LL	.	8c\J	.	.	.	.	.
16G\JJ	.	.	.	.	.	.	.
=183	=183	=183	=183	=183	=183	=183	=183
8F\L	.	8a\L	.	8cc\L	f	4.r	.
8F\J	.	8a\J	.	8cc\	.	.	.
16F\LL	.	16a\LL	.	8cc\J	.	.	.
16E\JJ	.	16g\JJ	.	.	.	.	.
=184	=184	=184	=184	=184	=184	=184	=184
8D/L	.	8f\L	.	8cc\L	.	8ff\L	f
16D/L	.	16f\L	.	16b\L	.	8ff\	.
16C/	.	16e\	.	16cc\	.	.	.
16BB/	.	16d\	.	16dd\	.	8ff\J	.
16AA/JJ	.	16c\JJ	.	16ee\JJ	.	.	.
=185	=185	=185	=185	=185	=185	=185	=185
8GG/	.	8B\L	.	8ff\L	.	4ddd\	.
[4G\	.	8r	.	8r	.	.	.
.	.	8d\J	.	8ff\J	.	16bb\LL	p
.	.	.	.	.	.	32aa\L	.
.	.	.	.	.	.	32bb\JJJ	.
=186	=186	=186	=186	=186	=186	=186	=186
4.G\]	.	8c/L	p	8ee\L	p	8ccc\L	.
.	.	8B/	.	8dd\	.	8ff\	.
.	.	8c/J	.	8cc\J	.	8ee\J	.
=187	=187	=187	=187	=187	=187	=187	=187
8GG/	.	8f\L	.	8b\L	.	4ddd\	.
[4G\	.	8r	.	8r	.	.	.
.	.	8d\J	.	8ff\J	.	16bb\LL	p
.	.	.	.	.	.	32aa\L	.
.	.	.	.	.	.	32bb\JJJ	.
=188	=188	=188	=188	=188	=188	=188	=188
4.G\]	.	8c/L	p	8ee\L	p	8ccc\L	.
.	.	8B/	.	8dd\	.	8ff\	.
.	.	8c/J	.	8cc\J	.	8ee\J	.
=189	=189	=189	=189	=189	=189	=189	=189
8GG/L	.	8f\L	.	8b\L	.	4ddd\	.
8G/	.	8d\	.	8ff\	.	.	.
8G/J	.	8d\J	.	8ff\J	.	16bb\LL	.
.	.	.	.	.	.	32aa\L	.
.	.	.	.	.	.	32bb\JJJ	.
=190	=190	=190	=190	=190	=190	=190	=190
8G\	.	8b\	.	8dd\	.	8fff\L	.
8r	.	8r	.	8r	.	8r	.
8r	.	8r	.	8r	.	8g\J	pp
=191	=191	=191	=191	=191	=191	=191	=191
4.r	.	4.r	.	4.r	.	16ee\LL	.
.	.	.	.	.	.	16dd#\	.
.	.	.	.	.	.	16ee\	.
.	.	.	.	.	.	16ff\	.
.	.	.	.	.	.	16ee\	.
.	.	.	.	.	.	16dd\JJ	.
=192	=192	=192	=192	=192	=192	=192	=192
4.r	.	4.r	.	16a/LL	pp	8cc#\L	.
.	.	.	.	16g#/	.	.	.
.	.	.	.	16a/	.	8cc#\	.
.	.	.	.	16b-/	.	.	.
.	.	.	.	16a/	.	8cc#\J	.
.	.	.	.	16g/JJ	.	.	.
=193	=193	=193	=193	=193	=193	=193	=193
4.r	.	4.r	.	8f#/L	.	16dd\LL	.
.	.	.	.	.	.	16cc#\	.
.	.	.	.	8f#/	.	16dd\	.
.	.	.	.	.	.	16ee\	.
.	.	.	.	8f#/J	.	16dd\	.
.	.	.	.	.	.	16cc\JJ	.
=194	=194	=194	=194	=194	=194	=194	=194
4.r	.	4.r	.	16g/LL	.	8b\L	.
.	.	.	.	16f#/	.	.	.
.	.	.	.	16g/	.	8b\	.
.	.	.	.	16a/	.	.	.
.	.	.	.	16g/	.	8b\J	.
.	.	.	.	16f/JJ	.	.	.
=195	=195	=195	=195	=195	=195	=195	=195
4.r	.	4.r	.	16e/LL	.	8cc\L	.
.	.	.	.	16g/	.	.	.
.	.	.	.	16e/	.	8.ccc\	.
.	.	.	.	16g/	.	.	.
.	.	.	.	16cc/	.	.	.
.	.	.	.	16e/JJ	.	16bb\Jk	.
=196	=196	=196	=196	=196	=196	=196	=196
4.r	.	4.r	.	16f/LL	.	8bb\L	.
.	.	.	.	16cc/	.	.	.
.	.	.	.	16f/	.	8.aa\	.
.	.	.	.	16cc/	.	.	.
.	.	.	.	16e/	.	.	.
.	.	.	.	16cc/JJ	.	16gg\Jk	.
=197	=197	=197	=197	=197	=197	=197	=197
4.r	.	4.r	.	16d/LL	.	16gg\LL	.
.	.	.	.	16b/	.	16ff#\	.
.	.	.	.	16d/	.	16ff#\	.
.	.	.	.	16b/	.	16ff\	.
.	.	.	.	16c/	.	16ff\	.
.	.	.	.	16cc/JJ	.	16ee\JJ	.
=198	=198	=198	=198	=198	=198	=198	=198
4.r	.	4.r	.	16G/LL	.	16.gg\LL	.
.	.	.	.	16g/	.	.	.
.	.	.	.	.	.	32ee\Jk	.
.	.	.	.	16f#/	.	8dd\J	.
.	.	.	.	16g/	.	.	.
.	.	.	.	16b/	.	8r	.
.	.	.	.	16dd/JJ	.	.	.
=199	=199	=199	=199	=199	=199	=199	=199
4.r	.	16e\LL	pp	16gg\LL	pp	4.r	.
.	.	16d#\	.	16ff#\	.	.	.
.	.	16e\	.	16gg\	.	.	.
.	.	16f\	.	16aa\	.	.	.
.	.	16e\	.	16gg\	.	.	.
.	.	16d\JJ	.	16ff\JJ	.	.	.
=200	=200	=200	=200	=200	=200	=200	=200
8A\L	pp	8c#\L	.	8ee\L	.	16aa\LL	pp
.	.	.	.	.	.	16gg#\	.
8A\	.	8c#\	.	8ee\	.	16aa\	.
.	.	.	.	.	.	16bb-\	.
8A\J	.	8c#\J	.	8ee\J	.	16aa\	.
.	.	.	.	.	.	16gg\JJ	.
=201	=201	=201	=201	=201	=201	=201	=201
8D\	.	16d\LL	.	16ff\LL	.	8ff\	.
.	.	16c#\	.	16ee\	.	.	.
8r	.	16d\	.	16ff\	.	8r	.
.	.	16e\	.	16gg\	.	.	.
8r	.	16d\	.	16ff\	.	8r	.
.	.	16c\JJ	.	16ee\JJ	.	.	.
=202	=202	=202	=202	=202	=202	=202	=202
8G\L	.	8B/L	.	8dd\L	.	16gg\LL	.
.	.	.	.	.	.	16ff#\	.
8G\	.	8B/	.	8dd\	.	16gg\	.
.	.	.	.	.	.	16aa\	.
8G\J	.	8B/J	.	8dd\J	.	16gg\	.
.	.	.	.	.	.	16ff\JJ	.
=203	=203	=203	=203	=203	=203	=203	=203
4.r	.	16c\LL	.	16ee\LL	.	8ee\	.
.	.	16b\	.	16dd#\	.	.	.
.	.	16cc\	.	16ee\	.	8r	.
.	.	16dd\	.	16ff\	.	.	.
.	.	16cc\	.	16ee\	.	8r	.
.	.	16b\JJ	.	16dd\JJ	.	.	.
=204	=204	=204	=204	=204	=204	=204	=204
4.r	.	16a\LL	.	16cc\LL	.	16ccc\LL	.
.	.	16g#\	.	16cc\	.	16bb\	.
.	.	16a\	.	16cc\	.	16ccc\	.
.	.	16b\	.	16cc\	.	16ddd\	.
.	.	16a\	.	16cc\	.	16ccc\	.
.	.	16g\JJ	.	16cc\JJ	.	16bb-\JJ	.
=205	=205	=205	=205	=205	=205	=205	=205
4.r	.	16f\LL	.	16cc/LL	.	16aa\LL	.
.	.	16e\	.	16cc#/	.	16gg\	.
.	.	16d\	.	16dd/	.	16ff\	.
.	.	16c\	.	16a/	.	16ee\	.
.	.	16B\	.	16b/	.	16dd\	.
.	.	16A\JJ	.	16f#/JJ	.	16cc\JJ	.
=206	=206	=206	=206	=206	=206	=206	=206
4.r	.	8G/	.	8g/	.	8b\	.
.	.	4A/	.	4g/	.	4cc\	.
=207	=207	=207	=207	=207	=207	=207	=207
4.r	.	8B/	.	8g/	.	8dd\	.
.	.	4c\	.	4g/	.	4ee\	.
=208	=208	=208	=208	=208	=208	=208	=208
4.r	.	16.f\LL	.	16.a\LL	.	16.gg\LL	.
.	.	32d\JJk	.	32dd\JJk	.	32ff\JJk	.
.	.	8g\L	.	8cc\L	.	8ee\L	.
.	.	8G\J	.	8b\J	.	8dd\J	.
=209	=209	=209	=209	=209	=209	=209	=209
16E\LL	<	16c\LL	<	16gg\LL	<	4.r	.
16e\	<	16cc\	<	16ff#\	<	.	.
16e\	.	16cc\	.	16gg\	.	.	.
16e\	.	16cc\	.	16aa\	.	.	.
16e\	.	16cc\	.	16gg\	.	.	.
16d\JJ	.	16b\JJ	.	16ff\JJ	.	.	.
=210	=210	=210	=210	=210	=210	=210	=210
16C\LL	.	16G\LL	.	16ee\LL	.	16eee\LL	<
16c\	.	16g\	.	16dd#\	.	16ddd#\	<
16c\	.	16g\	.	16ee\	.	16eee\	.
16c\	.	16g\	.	16ff\	.	16fff\	.
16c\	.	16g\	.	16ee\	.	16eee\	.
16B\JJ	.	16g#\JJ	.	16dd\JJ	.	16ddd\JJ	.
=211	=211	=211	=211	=211	=211	=211	=211
16A\LL	.	16a\LL	.	16cc/LL	.	16ccc\LL	.
16G\	.	16e\	.	16b/	.	16bb\	.
16F\	.	16f\	.	16a/	.	16aa\	.
16E\	.	16c\	.	16g/	.	16gg\	.
16D\	.	16B\	.	16f/	.	16ff\	.
16C\JJ	.	16c\JJ	.	16e/JJ	.	16ee\JJ	.
=212	=212	=212	=212	=212	=212	=212	=212
8BB/	.	8G/	.	8f/	.	8dd\	.
4BB-/	.	4C/	.	4g/	.	4ee\	.
=213	=213	=213	=213	=213	=213	=213	=213
8AA/	.	8c\	.	8a/	.	8ff\	.
4E\	.	4c\	.	4b-\	.	4gg#\	.
=214	=214	=214	=214	=214	=214	=214	=214
16.F\LL	.	16.c\LL	.	16.a\LL	.	16.aa\LL	.
32D\JJk	.	32a\JJk	.	32dd\JJk	.	32ff\JJk	.
8G/L	.	8g\L	.	8cc\L	.	8ee\L	.
8GG/J	.	8f\J	.	8b\J	.	8dd\J	.
=215	=215	=215	=215	=215	=215	=215	=215
8C/	p	8e\	p	16cc\LL	p	8cc\	p
.	.	.	.	16gg\	.	.	.
8r	.	8r	.	16ff\	.	8r	.
.	.	.	.	16ee\	.	.	.
8r	.	8r	.	16dd\	.	8r	.
.	.	.	.	16cc\JJ	.	.	.
=216	=216	=216	=216	=216	=216	=216	=216
4.r	.	4.r	.	16b/LL	.	8gg\L	.
.	.	.	.	16a/	.	.	.
.	.	.	.	16g/	.	8gg\	.
.	.	.	.	16f/	.	.	.
.	.	.	.	16e/	.	8gg\J	.
.	.	.	.	16d/JJ	.	.	.
=217	=217	=217	=217	=217	=217	=217	=217
4.r	.	8r	.	16c/LL	.	4.gg\	.
.	.	.	.	16d/	.	.	.
.	.	16C/LL	p	16e/	.	.	.
.	.	16D/	.	16f/	.	.	.
.	.	16E/	.	16g/	.	.	.
.	.	16F/JJ	.	16a/JJ	.	.	.
=218	=218	=218	=218	=218	=218	=218	=218
4.r	.	16G/LL	.	16b\LL	.	8gg\L	.
.	.	16A/	.	16cc\	.	.	.
.	.	16B/	.	16dd\	.	8gg\	.
.	.	16c/	.	16ee\	.	.	.
.	.	16d/	.	16ff\	.	8gg\J	.
.	.	16B/JJ	.	16dd\JJ	.	.	.
=219	=219	=219	=219	=219	=219	=219	=219
4.r	.	8c\	.	8ee\	.	16gg\LL	.
.	.	.	.	.	.	16ggg\	.
.	.	8r	.	8r	.	16fff\	.
.	.	.	.	.	.	16eee\	.
.	.	8r	.	8r	.	16ddd\	.
.	.	.	.	.	.	16ccc\JJ	.
=220	=220	=220	=220	=220	=220	=220	=220
8GG/L	p	8r	.	8G/L 8f/	.	16bb\LL	.
.	.	.	.	.	.	16aa\	.
8GG/	.	8B/L	.	8G/ 8f/	.	16gg\	.
.	.	.	.	.	.	16ff\	.
8GG/J	.	8B/J	.	8G/J 8f/	.	16ee\	.
.	.	.	.	.	.	16dd\JJ	.
=221	=221	=221	=221	=221	=221	=221	=221
4.GG/	.	4.c\	.	8G/L 8e/	.	16cc\LL	.
.	.	.	.	.	.	16dd\	.
.	.	.	.	16c/L	.	16ee\	.
.	.	.	.	16d/	.	16ff\	.
.	.	.	.	16e/	.	16gg\	.
.	.	.	.	16f/JJ	.	16aa\JJ	.
=222	=222	=222	=222	=222	=222	=222	=222
8GG/L	.	8G\L 8f\	.	16g\LL	.	16bb\LL	.
.	.	.	.	16a\	.	16ccc\	.
8GG/	.	8G\ 8f\	.	16b\	.	16ddd\	.
.	.	.	.	16cc\	.	16eee\	.
8GG/J	.	8G\J 8f\	.	16dd\	.	16fff\	.
.	.	.	.	16b\JJ	.	16ddd\JJ	.
=223	=223	=223	=223	=223	=223	=223	=223
16C\LL	.	8G\L 8e\	.	8cc/L	.	4eee\	.
16G\	.	.	.	.	.	.	.
16F\	.	16r	.	8r	.	.	.
16E\	.	16g\L	.	.	.	.	.
16D\	.	16f\	.	16g/L	.	8r	.
16C\JJ	.	16e\JJ	.	16a/JJ	.	.	.
=224	=224	=224	=224	=224	=224	=224	=224
16BB/LL	.	16d/LL	.	16b\LL	.	8gg\L	.
16AA/	.	16c/	.	16cc\	.	.	.
16GG/	.	16B/	.	16dd\	.	8gg\	.
16FF/	.	16A/	.	16ee\	.	.	.
16EE/	.	16G/	.	16ff\	.	8gg\J	.
16DD/JJ	.	16F/JJ	.	16b\JJ	.	.	.
=225	=225	=225	=225	=225	=225	=225	=225
16CC\LL	.	8E\L	.	8cc/L	.	8eee\	.
16e\	.	.	.	.	.	.	.
16d\	.	16r	.	8r	.	8r	.
16c\	.	16ee\L	.	.	.	.	.
16B\	.	16dd\	.	16e/L	.	8r	.
16A\JJ	.	16cc\JJ	.	16f#/JJ	.	.	.
=226	=226	=226	=226	=226	=226	=226	=226
16G#\LL	.	16b\LL	.	16g#/LL	.	8ee\L	.
16F#\	.	16a\	.	16a/	.	.	.
16E\	.	16g#\	.	16b/	.	8ee\	.
16D\	.	16f#\	.	16cc/	.	.	.
16C\	.	16e\	.	16dd/	.	8ee\J	.
16BB\JJ	.	16d\JJ	.	16g#/JJ	.	.	.
=227	=227	=227	=227	=227	=227	=227	=227
16AA\LL	<	16c\LL	<	16a/LL	<	16ccc\LL	<
16c\	<	16cc\	.	16cc/	<	16ccc\	<
16B-\	.	16b-\	.	16b-/	.	16bb-\	.
16A\	.	16a\	.	16a/	.	16aa\	.
16G\	.	16g\	.	16g/	.	16gg\	.
16F\JJ	.	16f\JJ	.	16f/JJ	.	16ff\JJ	.
=228	=228	=228	=228	=228	=228	=228	=228
16E/LL	.	16e/LL	.	16e/LL	.	16ee\LL	.
16D/	.	16d/	.	16d/	.	16dd\	.
16C/	.	16c/	.	16c/	.	16cc\	.
16BB-/	.	16B/	.	16B-/	.	16b-\	.
16AA/	.	16A/	.	16A/	.	16a\	.
16GG/JJ	.	16G/JJ	.	16G/JJ	.	16g\JJ	.
=229	=229	=229	=229	=229	=229	=229	=229
8FF/L	ff	8F/L	ff	8f/L	ff	8f/L	ff
8FF/	.	8F/	.	8f/	.	8f/	.
8FF/J	.	8F/J	.	8f/J	.	8f/J	.
=230	=230	=230	=230	=230	=230	=230	=230
8FF#/L	.	8F#/L	.	8f#/L	.	8f#/L	.
8FF#/	.	8F#/	.	8f#/	.	8f#/	.
8FF#/J	.	8F#/J	.	8f#/J	.	8f#/J	.
=231	=231	=231	=231	=231	=231	=231	=231
4GG/	.	8G/L	.	4g/	.	4g/	.
.	.	8G/	p	.	.	.	.
8r	.	8G/J	.	8r	.	8r	.
=232	=232	=232	=232	=232	=232	=232	=232
4.r	.	4.c\	.	4.r	.	8r	.
.	.	.	.	.	.	16aa\LL	.
.	.	.	.	.	.	16ff#\	p
.	.	.	.	.	.	16aa\	.
.	.	.	.	.	.	16ff#\JJ	.
=233	=233	=233	=233	=233	=233	=233	=233
8G\L	p	8B/L	<	4.r	.	4gg\	.
8G\	<	8B/	.	.	.	.	.
8G\J	.	8B/J	.	.	.	8r	.
=234	=234	=234	=234	=234	=234	=234	=234
4.c\	.	4.e-\	.	4.r	.	8r	.
.	.	.	.	.	.	16aa\LL	.
.	.	.	.	.	.	16ff#\	p
.	.	.	.	.	.	16aa\	.
.	.	.	.	.	.	16ff#\JJ	.
=235	=235	=235	=235	=235	=235	=235	=235
8B\	.	8d\	.	8g/L	pp	8gg\	.
8r	.	8r	.	8g/	.	8r	.
8r	.	8r	.	8g/J	.	8r	.
=236	=236	=236	=236	=236	=236	=236	=236
4.r	.	4.r	.	8cc#\L	.	4.r	.
.	.	.	.	8cc#\	.	.	.
.	.	.	.	8cc#\J	.	.	.
=237	=237	=237	=237	=237	=237	=237	=237
4.r	.	4.r	.	8cc#\L	.	8gg\L	pp
.	.	.	.	8cc#\	.	8gg\	.
.	.	.	.	8cc#\J	.	8gg\J	.
=238	=238	=238	=238	=238	=238	=238	=238
8e\L	pp	8g\L	pp	8cc#\L	.	8bb-\L	.
8e\	.	8g\	.	8cc#\	.	8bb-\	.
8e\J	.	8g\J	.	8cc#\J	.	8bb-\J	.
=239	=239	=239	=239	=239	=239	=239	=239
8f\L	<	8g\L	<	8cc#\L 8ee\	<	8bb-\L	<
8f\	.	8g\	.	8cc#\ 8ee\	.	8bb-\	.
8f\J	.	8g\J	.	8cc#\J 8ee\	.	8bb-\J	.
=240	=240	=240	=240	=240	=240	=240	=240
8f\L	.	8a\L	.	8dd\L 8ff\	.	8aa\L	.
8f\	.	8a\	.	8dd\ 8ff\	.	8aa\	.
8f\J	.	8a\J	.	8dd\J 8ff\	.	8aa\J	.
=241	=241	=241	=241	=241	=241	=241	=241
8G\L	.	8dd\L	.	8ff\L	.	8bb\L	.
8G\	.	8d\	.	8ff\	.	8bb\	.
8G\J	.	8d\J	.	8ff\J	.	8bb\J	.
=242	=242	=242	=242	=242	=242	=242	=242
8A\L	.	8c\L	.	8ee\L	.	8ccc\L	.
8A\	.	8e\	.	8cc\	.	8ccc\	.
8A\J	.	8e\J	.	8cc\J	.	8ccc\J	.
=243	=243	=243	=243	=243	=243	=243	=243
8F\L	>	8d\L	>	8cc\L	>	8aa\L	>
8F\	.	8d\	.	8cc\	.	8aa\	.
8F\J	.	8d\J	.	8cc\J	.	8aa\J	.
=244	=244	=244	=244	=244	=244	=244	=244
8G\L	.	8f\L	.	8b\L	.	8gg\L	.
8G\	.	8f\	.	8b\	.	8gg\	.
8G\J	.	8f\J	.	8b\J	.	8gg\J	.
=245	=245	=245	=245	=245	=245	=245	=245
8C/	pp	8e\	.	8cc\	.	8cc\	p
8r	.	8c\L	pp	8e/L	pp	8r	.
8r	.	8e\J	.	8g/J	.	8r	.
=246	=246	=246	=246	=246	=246	=246	=246
8BB/	.	8r	.	8r	.	8gg\L	pp
8r	.	8B\L	.	8d/L	.	8gg\	.
8r	.	8d\J	.	8g/J	.	8gg\J	.
=247	=247	=247	=247	=247	=247	=247	=247
8AA/	.	8r	.	8r	.	8ccc\L	.
8r	.	8A/L	.	8c/L	.	8ccc\J	.
8r	.	8c/J	.	8e/J	.	16ccc\LL	.
.	.	.	.	.	.	16bb\JJ	.
=248	=248	=248	=248	=248	=248	=248	=248
8FF/	.	8r	.	8r	.	16aa\LL	.
.	.	.	.	.	.	16gg\	.
8r	.	8A/L	.	8d/L	.	16ff\	.
.	.	.	.	.	.	16ee\	.
8r	.	8d/J	.	8f/J	.	16dd\	.
.	.	.	.	.	.	16cc\JJ	.
=249	=249	=249	=249	=249	=249	=249	=249
8GG/	.	8d/L	.	8G/L 8f/	.	8b\L	.
8r	.	8B/	.	8G/ 8f/	.	8dd\	.
8r	.	8B/J	.	8G/J 8f/	.	8gg\J	.
=250	=250	=250	=250	=250	=250	=250	=250
8C\L	.	8c\L	.	8G/L 8e/	.	8ee\L	.
8E\	.	8c\	.	8G/ 8e/	.	8cc\J	.
8G\J	.	8c\J	.	8G/J 8e/	.	8r	.
=251	=251	=251	=251	=251	=251	=251	=251
8D/L	.	8B/L	.	8G/L 8f/	.	16b\LL	.
.	.	.	.	.	.	16b\	.
8GG/J	.	8B/	.	8G/ 8f/	.	16dd\	.
.	.	.	.	.	.	16dd\	.
8r	.	8B/J	.	8G/J 8f/	.	16gg\	.
.	.	.	.	.	.	16gg\JJ	.
=252	=252	=252	=252	=252	=252	=252	=252
16C\LL	.	8c\L	.	8G/L 8e/	.	8ee\L	.
16C\	.	.	.	.	.	.	.
16E\	.	8c\	.	8G/ 8e/	.	8cc\J	.
16E\	.	.	.	.	.	.	.
16G\	.	8c\J	.	8G/J 8e/	.	8r	.
16G\JJ	.	.	.	.	.	.	.
=253	=253	=253	=253	=253	=253	=253	=253
8D/L	.	8B/L	.	8G/L 8f/	.	16b\LL	.
.	.	.	.	.	.	16b\	.
8GG/J	.	8B/	.	8G/ 8f/	.	16dd\	.
.	.	.	.	.	.	16dd\	.
8r	.	8B/J	.	8G/J 8f/	.	16gg\	.
.	.	.	.	.	.	16gg\JJ	.
=254	=254	=254	=254	=254	=254	=254	=254
16C\LL	.	8c/L	.	8G/L 8e/	.	8cc\L	.
16C\	.	.	.	.	.	.	.
16E\	.	16r	.	16r	.	16r	.
16E\	.	16c/L	.	16e/L	.	16gg\L	.
16G\	.	16B/	.	16f/	.	16dd\	.
16G\JJ	.	16B/JJ	.	16f/JJ	.	16gg\JJ	.
=255	=255	=255	=255	=255	=255	=255	=255
16C\LL	.	8c/L	.	8e/L	.	8ee\L	.
16C\	.	.	.	.	.	.	.
16E\	.	16r	.	16r	.	16r	.
16E\	.	16c/L	.	16e/L	.	16gg\L	.
16G\	.	16B/	.	16f/	.	16dd\	.
16G\JJ	.	16B/JJ	.	16f/JJ	.	16gg\JJ	.
=256	=256	=256	=256	=256	=256	=256	=256
16C/LL	.	8c\L	.	8e/L	.	8ee\L	.
16C/	.	.	.	.	.	.	.
16E/	.	16r	.	16r	.	16r	.
16E/	.	16e\L	.	16cc/L	.	16gg\L	.
16GG/	.	16f\	.	16dd/	.	16bb\	.
16GG/JJ	.	16f\JJ	.	16dd/JJ	.	16gg\JJ	.
=257	=257	=257	=257	=257	=257	=257	=257
16C/LL	.	8e\L	.	8cc\L	.	8ccc\L	.
16C/	.	.	.	.	.	.	.
16E/	.	16r	.	16r	.	16r	.
16E/	.	16e\L	.	16cc\L	.	16gg\L	.
16GG/	.	16f\	.	16dd\	.	16bb\	.
16GG/JJ	.	16f\JJ	.	16dd\JJ	.	16gg\JJ	.
=258	=258	=258	=258	=258	=258	=258	=258
16C/LL	<	16e\LL	<	16cc\LL	<	16ccc\LL	<
16C/	.	16g\	.	16ee\	.	16gg\	.
16GG/	.	16d\	.	16b\	.	16bb\	.
16GG/	.	16f\	.	16dd\	.	16gg\	.
16GG/	.	16e\	.	16cc\	.	16ccc\	.
16GG/JJ	.	16g\JJ	.	16ee\JJ	.	16gg\JJ	.
=259	=259	=259	=259	=259	=259	=259	=259
16GG/LL	.	16d\LL	.	16b\LL	.	16bb\LL	.
16GG/	.	16f\	.	16dd\	.	16gg\	.
16GG/	.	16e\	.	16cc\	.	16ccc\	.
16GG/	.	16g\	.	16ee\	.	16gg\	.
16GG/	.	16d\	.	16b\	.	16bb\	.
16GG/JJ	.	16f\JJ	.	16dd\JJ	.	16gg\JJ	.
=260	=260	=260	=260	=260	=260	=260	=260
8CC/L	.	8e\L	.	8cc/L	.	8ccc\L	.
8r	.	8r	.	8r	.	8r	.
8c/J	p	8e\J	p	8g/J	p	8cc\J	p
=261	=261	=261	=261	=261	=261	=261	=261
8c\	.	8e\	.	8g/	.	8cc\	.
8r	.	8r	.	8r	.	8r	.
8r	.	8r	.	8r	.	8r	.
==	==	==	==	==	==	==	==
*-	*-	*-	*-	*-	*-	*-	*-
!!!ENC: Craig Stuart Sapp
!!!END: 2006/02/01/
